X:1
T:The Golden Stud
R:reel
M:4/4
L:1/8
K:Emin
B,D | E3G F3A | G3B ABcA | BAGB AGFA | GEFD EDB,D |
E3G F3A | G3B ABcA | BAGB AGFA | GEFD E2 :|
|:AB | c2AB cBAc | B2GA BAGB | A2FG AGFA | GEFD E2AB |
c2AB cBAc | B2GA BAGB | A2FG AGFA | GEFD E2 :|
%%newpage

